X: 41634
T: Up The River
R: jig
M: 6/8
K: Gmajor
B2c|:d2B e2B|dBG GFG|A2F DEF|G2A B2c|
d2B e2B|dBG GFG|AFD DEF|1 G3 B2c:|2 G3 GFE||
|:DFA d^cd|DFA d^cd|^cde edc|d^cB AFE|
DFA d^cd|DFA d^cd|^cde edc|1 d3 d3:|2 d3 B2c||

